X: 1
T: Springpols
O: Norway
R: pols, hambo
Z: 2009 John Chambers <jc:trillian.mit.edu>
S: handwritten notes from the 1970s
M: 3/4
L: 1/8
K: G
|: "G"B2 B>D G>B | "C"e2 e>d c>B | "D7"A2 AD F>A | "G"d2 d>c B>A \
|  "G"G2 B>D G>B | "C"B2{cBAB} c>B A>G | "D7"F>G A>D E>F | "G"G2 G4 :|
|: "G"G>B B>d d>g | "D7"g>f f2 f>f | "C"f>e e>f g>e | "G"e>d d>B G>B \
|  "C"d>c c2{dcBc} e>c | "G"c>B B2{cBAB} d>B | "D7"B>A A>D F>A | "G"G2 G4 :|
